browser/images/lc_spelldialog.svg

<svg viewBox="0 0 24 24" xmlns="http://www.w3.org/2000/svg"><path d="m10 18-.9999999 1 3.9999999 4 10-10-1-1-9 9z" fill="#18ab50"/><g fill="#3a3a38" stroke-width=".397352"><path d="m6.2889088 12.029355q-.2017801 0-.310431-.06209-.1086508-.06209-.1474546-.256106l-.1707371-.70623q-.2949094.271627-.582058.488929-.2793878.209541-.5898187.356995-.310431.147455-.6674266.217302-.3569955.07761-.7838381.07761-.4423641 0-.8304027-.116412-.3802779-.12417-.6751873-.372515-.2871486-.256106-.4578857-.628623-.16297619-.380278-.16297619-.892489 0-.4501245.24058399-.8614455.2483447-.4190818.7993596-.7450343.551015-.3259524 1.4357431-.5277326.8847282-.2095408 2.1730166-.2405839v-.582058q0-.8847282-.3802779-1.3270923-.3725171-.4501248-1.0942691-.4501248-.4811679 0-.8148812.1241723-.3259525.1241724-.5665364.2716271-.240584.1474547-.4190818.2716271-.170737.1241723-.3492348.1241723-.1396939 0-.240584-.069847-.10089-.069847-.1629762-.1784978l-.2483448-.4346032q.6286227-.6053403 1.3503746-.9002497.7295127-.3026702 1.6142409-.3026702.6363834 0 1.1330729.2095409.4966895.2017801.8304027.582058.3337133.3802779.5044503.9080105.1784978.5277326.1784978 1.1718768v4.8504833zm-2.8404431-.838163q.341474 0 .6286227-.06985.2871486-.06985.5432541-.19402.2561055-.131933.481168-.318191.2328232-.19402.4578856-.426843v-1.5676733q-.9080105.0388039-1.5443939.1552155-.6363834.1086508-1.0399437.2949094-.3957994.1862586-.5742972.4423641-.1784978.2483447-.1784978.5587753 0 .29491.093129.512211.10089.209541.2638663.349235.1629762.131933.3880387.20178.2250624.06209.4811679.06209z"/><path d="m8.9818971 12.029355v-11.03581974h1.3658959v4.52453094q.465647-.551015 1.063226-.8692067.59758-.3259524 1.373657-.3259524.659666 0 1.187398.2561055.527733.2561055.90025.7372734.372517.481168.566537 1.1718768.20178.6829481.20178 1.5521547 0 .9235321-.225063 1.6763271-.225062.7527954-.644144 1.2960494-.419082.535493-1.016661.830402-.59758.29491-1.342614.29491-.745034 0-1.249485-.279388-.496689-.287149-.884728-.791599l-.07761.675187q-.03104.287149-.3337137.287149zm3.3448929-6.6277004q-.628622 0-1.10979.2949093-.473407.2949094-.869207.8381636v3.6630855q.356996.488928.783838.690708.426843.19402.939054.19402 1.047704 0 1.60648-.752795.558776-.7527953.558776-2.2428638 0-1.3814177-.49669-2.0333227-.496689-.6519049-1.412461-.6519049z"/><path d="m22.182973 5.8052148q-.06209.085369-.124173.1319331-.05433.038804-.162976.038804-.116412 0-.240584-.093129-.124172-.093129-.310431-.2017801-.186258-.1164116-.457886-.2095409-.263866-.093129-.651904-.093129-.512212 0-.908011.2017801-.388039.1940194-.651905.5665365-.256105.3647564-.395799.8924889-.131934.5277326-.131934 1.1873984 0 .682948.139694 1.2184414.147455.5277326.411321.8924885.263867.364757.636384.558776.372517.186259.838163.186259.450125 0 .737274-.116412.287148-.116412.481168-.256105.194019-.139694.318191-.256106.131934-.116412.271628-.116412.155215 0 .248344.131934l.3958.496689q-.248345.30267-.551015.527733-.30267.217301-.651905.364756-.349235.139694-.729513.209541-.372517.06985-.760556.06985-.667426 0-1.249484-.263866-.582058-.263867-1.016661-.760556-.426843-.50445-.675188-1.2262024-.240584-.7295127-.240584-1.6608055 0-.8459243.225063-1.5599155.225062-.7217519.651905-1.2417237.434603-.5199718 1.063226-.8071205.636383-.2949093 1.459025-.2949093.776077 0 1.358135.2638662.582058.2561056 1.032183.721752z"/></g><g fill="#ed3d3b"><path d="m6.3320312 13-.3984374.435547-1.9277344 1.927734-1.9277344-1.927734a.58187636.58187636 0 1 0 -.8007812.800781l2.328125 2.328125.4003906.435547.4003906-.435547 1.9257812-1.927734 1.9277344 1.927734.0996094.107422c.0789907-.113867.1679811-.223017.2714844-.324219.3624751-.354358.8047597-.552781 1.2597656-.613281l1.097656-1.097656 1.925781 1.927734.400391.435547.400391-.435547 1.927734-1.927734.597656.599609.75586-.845703-.955078-.955078-.398438-.435547-.40039.435547-1.927735 1.927734-1.927734-1.927734-.398438-.435547-.40039.435547-1.9277348 1.927734-1.9277343-1.927734z"/><path d="m6.3320312 13-.3984374.435547-1.9277344 1.927734-1.9277344-1.927734-.8007812.800781 2.328125 2.328125.4003906.435547.4003906-.435547 1.9257812-1.927734 2.1679688 2.363281 2.488281-2.363281 1.925781 1.927734.400391.435547.400391-.435547 1.927734-1.927734.597656.599609.75586-.845703-.955078-.955078-.398438-.435547-.40039.435547-1.927735 1.927734-1.927734-1.927734-.398438-.435547-.40039.435547-1.9277348 1.927734-1.9277343-1.927734z"/></g></svg>

<?xml version="1.0" encoding="UTF-8" standalone="no"?>
<!DOCTYPE svg PUBLIC "-//W3C//DTD SVG 1.1//EN" "http://www.w3.org/Graphics/SVG/1.1/DTD/svg11.dtd">
<svg width="100%" height="100%" viewBox="0 0 24 24" version="1.1" xmlns="http://www.w3.org/2000/svg" xmlns:xlink="http://www.w3.org/1999/xlink" xml:space="preserve" xmlns:serif="http://www.serif.com/" style="fill-rule:evenodd;clip-rule:evenodd;stroke-linejoin:round;stroke-miterlimit:2;">
    <path d="M6.289,12.029C6.154,12.029 6.051,12.009 5.978,11.967C5.906,11.926 5.857,11.841 5.831,11.711L5.66,11.005C5.464,11.186 5.27,11.349 5.078,11.494C4.892,11.633 4.695,11.752 4.488,11.851C4.281,11.949 4.059,12.022 3.821,12.068C3.583,12.12 3.322,12.146 3.037,12.146C2.742,12.146 2.465,12.107 2.207,12.029C1.953,11.947 1.728,11.822 1.532,11.657C1.34,11.486 1.188,11.277 1.074,11.028C0.965,10.775 0.911,10.477 0.911,10.136C0.911,9.836 0.991,9.548 1.151,9.274C1.317,8.995 1.583,8.747 1.951,8.529C2.318,8.312 2.797,8.136 3.386,8.002C3.976,7.862 4.701,7.782 5.559,7.761L5.559,7.179C5.559,6.589 5.433,6.147 5.179,5.852C4.931,5.552 4.566,5.402 4.085,5.402C3.764,5.402 3.492,5.443 3.27,5.526C3.053,5.609 2.864,5.699 2.703,5.797C2.543,5.896 2.403,5.986 2.284,6.069C2.171,6.152 2.054,6.193 1.935,6.193C1.842,6.193 1.762,6.17 1.695,6.123C1.627,6.077 1.573,6.017 1.532,5.945L1.283,5.51C1.702,5.107 2.152,4.807 2.634,4.61C3.12,4.408 3.658,4.307 4.248,4.307C4.672,4.307 5.05,4.377 5.381,4.517C5.712,4.651 5.989,4.845 6.211,5.099C6.434,5.352 6.602,5.655 6.716,6.007C6.835,6.359 6.894,6.749 6.894,7.179L6.894,12.029L6.289,12.029ZM3.448,11.191C3.676,11.191 3.886,11.168 4.077,11.121C4.269,11.075 4.45,11.01 4.62,10.927C4.791,10.839 4.951,10.733 5.102,10.609C5.257,10.48 5.409,10.338 5.559,10.182L5.559,8.615C4.954,8.64 4.439,8.692 4.015,8.77C3.591,8.842 3.244,8.941 2.975,9.065C2.711,9.189 2.52,9.336 2.401,9.507C2.282,9.673 2.222,9.859 2.222,10.066C2.222,10.262 2.253,10.433 2.315,10.578C2.383,10.718 2.471,10.834 2.579,10.927C2.688,11.015 2.817,11.082 2.967,11.129C3.117,11.171 3.278,11.191 3.448,11.191Z" style="fill:rgb(58,58,56);fill-rule:nonzero;"/>
    <path d="M8.982,12.029L8.982,0.994L10.348,0.994L10.348,5.518C10.658,5.151 11.013,4.861 11.411,4.649C11.809,4.432 12.267,4.323 12.785,4.323C13.225,4.323 13.62,4.408 13.972,4.579C14.324,4.75 14.624,4.995 14.872,5.316C15.121,5.637 15.31,6.028 15.439,6.488C15.573,6.943 15.641,7.461 15.641,8.04C15.641,8.656 15.566,9.215 15.416,9.717C15.266,10.219 15.051,10.65 14.771,11.013C14.492,11.37 14.153,11.646 13.755,11.843C13.356,12.04 12.909,12.138 12.412,12.138C11.915,12.138 11.499,12.045 11.163,11.859C10.832,11.667 10.537,11.403 10.278,11.067L10.2,11.742C10.18,11.934 10.068,12.029 9.867,12.029L8.982,12.029ZM12.327,5.402C11.908,5.402 11.538,5.5 11.217,5.697C10.901,5.893 10.612,6.173 10.348,6.535L10.348,10.198C10.586,10.524 10.847,10.754 11.132,10.889C11.416,11.018 11.729,11.082 12.071,11.082C12.769,11.082 13.305,10.832 13.677,10.33C14.05,9.828 14.236,9.08 14.236,8.087C14.236,7.166 14.07,6.488 13.739,6.054C13.408,5.619 12.937,5.402 12.327,5.402Z" style="fill:rgb(58,58,56);fill-rule:nonzero;"/>
    <path d="M22.183,5.805C22.142,5.862 22.1,5.906 22.059,5.937C22.023,5.963 21.968,5.976 21.896,5.976C21.818,5.976 21.738,5.945 21.655,5.883C21.573,5.821 21.469,5.753 21.345,5.681C21.221,5.603 21.068,5.534 20.887,5.471C20.711,5.409 20.494,5.378 20.235,5.378C19.893,5.378 19.591,5.446 19.327,5.58C19.068,5.709 18.851,5.898 18.675,6.147C18.504,6.39 18.372,6.687 18.279,7.039C18.191,7.391 18.147,7.787 18.147,8.227C18.147,8.682 18.194,9.088 18.287,9.445C18.385,9.797 18.523,10.094 18.698,10.338C18.874,10.581 19.086,10.767 19.335,10.896C19.583,11.021 19.863,11.082 20.173,11.082C20.473,11.082 20.719,11.044 20.91,10.966C21.102,10.889 21.262,10.803 21.391,10.71C21.521,10.617 21.627,10.531 21.71,10.454C21.797,10.376 21.888,10.338 21.981,10.338C22.085,10.338 22.167,10.382 22.23,10.469L22.625,10.966C22.46,11.168 22.276,11.344 22.074,11.494C21.872,11.639 21.655,11.76 21.422,11.859C21.19,11.952 20.946,12.022 20.693,12.068C20.445,12.115 20.191,12.138 19.932,12.138C19.487,12.138 19.071,12.05 18.683,11.874C18.295,11.698 17.956,11.445 17.666,11.114C17.382,10.777 17.157,10.368 16.991,9.887C16.831,9.401 16.75,8.847 16.75,8.227C16.75,7.663 16.825,7.143 16.976,6.667C17.125,6.185 17.343,5.772 17.627,5.425C17.917,5.078 18.271,4.809 18.691,4.618C19.115,4.421 19.601,4.323 20.15,4.323C20.667,4.323 21.12,4.411 21.508,4.587C21.896,4.758 22.24,4.998 22.54,5.309L22.183,5.805Z" style="fill:rgb(58,58,56);fill-rule:nonzero;"/>
    <path d="M10.988,14.637L8.5,17L6.332,14.637L4.406,16.564L4.006,17L3.605,16.564L1.277,14.236C1.203,14.19 1.139,14.128 1.092,14.054C1.045,13.98 1.015,13.896 1.005,13.809C0.995,13.721 1.005,13.633 1.033,13.55C1.062,13.467 1.109,13.392 1.172,13.33C1.234,13.268 1.309,13.22 1.392,13.192C1.475,13.163 1.563,13.153 1.65,13.163C1.738,13.173 1.821,13.203 1.895,13.25C1.97,13.297 2.032,13.361 2.078,13.435L4.006,15.363L5.934,13.435L6.332,13L6.732,13.435L8.66,15.363L10.588,13.435L10.988,13L10.989,13.001L11.386,13.436L12.342,14.392L11.588,15.237L10.988,14.637Z" style="fill:rgb(237,61,59);"/>
    <g transform="matrix(1,0,0,1,-2,0)">
        <path d="M17.438,13C17.149,13.094 16.87,13.213 16.604,13.357C16.268,13.543 15.954,13.766 15.67,14.023L16.428,16.26L14.111,16.725C14.039,17.06 14.002,17.403 14,17.746C14.001,18.089 14.037,18.432 14.107,18.768L16.428,19.232L15.672,21.469C16.185,21.927 16.788,22.275 17.441,22.49L19,20.717L20.562,22.492C20.851,22.399 21.13,22.279 21.396,22.135C21.732,21.949 22.046,21.726 22.33,21.469L21.572,19.232L23.889,18.768C23.961,18.432 23.998,18.09 24,17.746C23.999,17.403 23.963,17.061 23.893,16.725L21.572,16.26L22.328,14.023C21.815,13.565 21.212,13.217 20.559,13.002L19,14.775L18.531,14.242L17.438,13ZM17.156,14.191L18.248,15.435C18.355,15.557 18.489,15.651 18.64,15.709C18.79,15.767 18.953,15.788 19.113,15.77C19.36,15.741 19.588,15.622 19.752,15.435L20.844,14.191L21.156,14.371L20.625,15.94C20.579,16.074 20.563,16.217 20.577,16.358C20.591,16.5 20.635,16.636 20.706,16.759C20.777,16.882 20.873,16.989 20.989,17.072C21.104,17.155 21.236,17.212 21.375,17.24L23,17.566L23,17.926L21.375,18.252C21.236,18.28 21.104,18.337 20.989,18.42C20.873,18.503 20.777,18.61 20.706,18.733C20.635,18.856 20.591,18.993 20.577,19.134C20.563,19.275 20.579,19.418 20.625,19.553L21.154,21.115L21.156,21.121L20.844,21.301L19.752,20.057C19.658,19.95 19.543,19.864 19.413,19.805C19.283,19.746 19.142,19.716 19,19.716C18.858,19.716 18.717,19.746 18.587,19.805C18.458,19.864 18.342,19.95 18.248,20.057L17.156,21.301L16.844,21.121L17.375,19.553C17.421,19.418 17.437,19.275 17.423,19.134C17.409,18.993 17.365,18.856 17.294,18.733C17.223,18.61 17.127,18.503 17.011,18.42C16.896,18.337 16.764,18.28 16.625,18.252L15,17.926L15,17.566L16.625,17.24C16.764,17.212 16.896,17.155 17.011,17.072C17.127,16.989 17.223,16.882 17.294,16.759C17.365,16.636 17.409,16.5 17.423,16.358C17.437,16.217 17.421,16.074 17.375,15.94L16.844,14.371L17.156,14.191ZM19,16.746C18.735,16.746 18.48,16.852 18.293,17.039C18.105,17.227 18,17.481 18,17.746C18,18.011 18.105,18.266 18.293,18.453C18.48,18.641 18.735,18.746 19,18.746C19.265,18.746 19.52,18.641 19.707,18.453C19.895,18.266 20,18.011 20,17.746C20,17.481 19.895,17.227 19.707,17.039C19.52,16.852 19.265,16.746 19,16.746Z" style="fill:rgb(30,139,205);fill-rule:nonzero;"/>
    </g>
</svg>
